public/assets/logo8.svg

<svg width="128" height="33" viewBox="0 0 128 33" fill="none" xmlns="http://www.w3.org/2000/svg">
<path d="M0.5 10.7397L12.2175 10.7397L0.691977 22.2652L2.55399 24.1272L14.0795 12.6017V24.3192H14.154L16.7128 21.7604V10.9764L13.8428 8.10638L3.05726 8.10639L0.5 10.6636L0.5 10.7397Z" fill="#0E0E0E"/>
<path d="M32.4256 17.2692H34.6562V19.3418H32.4256V22.2925H29.9491V19.3418H23.468V17.5327L30.1774 9.57627H32.4256V17.2692ZM26.6295 17.2692H29.9491V13.212L26.6295 17.2692Z" fill="#0E0E0E"/>
<path d="M40.8772 13.6511C41.7437 13.6511 42.5165 13.8209 43.1956 14.1604C43.8865 14.5 44.4251 15.0035 44.8115 15.6709C45.2096 16.3383 45.4087 17.1404 45.4087 18.0772C45.4087 19.4706 44.9696 20.5595 44.0914 21.344C43.2132 22.1168 41.9779 22.5033 40.3854 22.5033C39.2847 22.5033 38.3597 22.3218 37.6103 21.9588C36.8727 21.5958 36.3106 21.1157 35.9242 20.5185C35.5495 19.9214 35.3329 19.2657 35.2743 18.5514H37.8035C38.1782 19.9097 39.033 20.5888 40.3679 20.5888C41.1875 20.5888 41.8081 20.3605 42.2296 19.9038C42.6629 19.4471 42.8795 18.8324 42.8795 18.0596C42.8795 17.2751 42.6629 16.6662 42.2296 16.233C41.7964 15.788 41.1816 15.5655 40.3854 15.5655C39.3316 15.5655 38.5237 16.0046 37.9616 16.8828L35.6783 16.6545L36.5389 9.57627H44.671V11.6488H38.5939L38.2075 14.5644C38.8398 13.9555 39.7297 13.6511 40.8772 13.6511Z" fill="#0E0E0E"/>
<path d="M55.1574 9.57627C56.9255 9.57627 58.5238 9.9978 59.9523 10.8409C61.3926 11.6722 62.1127 13.3701 62.1127 15.9344C62.1127 18.4987 61.3926 20.2024 59.9523 21.0455C58.5238 21.8768 56.9255 22.2925 55.1574 22.2925H50.8718V9.57627H55.1574ZM55.0696 20.0794C55.8775 20.0677 56.5977 19.9741 57.2299 19.7984C57.874 19.6111 58.4184 19.213 58.8634 18.6041C59.32 17.9952 59.5484 17.1053 59.5484 15.9344C59.5484 14.7635 59.32 13.8736 58.8634 13.2647C58.4184 12.6558 57.874 12.2577 57.2299 12.0703C56.5977 11.883 55.8775 11.7893 55.0696 11.7893H53.3483V20.0794H55.0696Z" fill="#0E0E0E"/>
<path d="M67.9239 12.6324C68.9426 12.6324 69.8149 12.8607 70.5409 13.3174C71.2785 13.7623 71.823 14.4005 72.1743 15.2318C72.5373 16.0632 72.6895 17.0409 72.631 18.165H65.5352C65.6171 18.9612 65.8689 19.5642 66.2904 19.9741C66.712 20.3839 67.2623 20.5888 67.9414 20.5888C68.5386 20.5888 69.0187 20.4424 69.3816 20.1497C69.7563 19.857 70.0081 19.4881 70.1369 19.0432H72.5783C72.3675 20.1438 71.8464 20.9986 71.0151 21.6075C70.1954 22.2047 69.1709 22.5033 67.9414 22.5033C66.9344 22.5033 66.0621 22.2983 65.3244 21.8885C64.5867 21.4787 64.0247 20.9049 63.6383 20.1673C63.2519 19.4179 63.0587 18.5514 63.0587 17.5678C63.0587 16.5959 63.2577 15.7353 63.6558 14.9859C64.054 14.2365 64.6219 13.6569 65.3595 13.2471C66.0972 12.8373 66.952 12.6324 67.9239 12.6324ZM70.1896 16.6194C70.1193 15.9871 69.891 15.4777 69.5046 15.0913C69.1299 14.7049 68.5971 14.5117 67.9063 14.5117C67.274 14.5117 66.7588 14.6873 66.3607 15.0386C65.9626 15.3899 65.6991 15.9168 65.5703 16.6194H70.1896Z" fill="#0E0E0E"/>
<path d="M82.9312 12.8431V21.9061C82.9312 23.1355 82.5389 24.125 81.7544 24.8744C80.9699 25.6355 79.8224 26.016 78.3119 26.016C77.0005 26.016 75.9583 25.7233 75.1855 25.1378C74.4127 24.5641 73.9561 23.7913 73.8156 22.8194H76.2218C76.5028 23.6859 77.1995 24.1191 78.3119 24.1191C79.0847 24.1191 79.6468 23.9259 79.998 23.5395C80.3493 23.1648 80.5249 22.6086 80.5249 21.871V20.6064C79.8692 21.6133 78.8798 22.1168 77.5567 22.1168C76.7253 22.1168 75.9935 21.9295 75.3612 21.5548C74.7406 21.1684 74.2547 20.6181 73.9034 19.9038C73.5638 19.1895 73.394 18.3465 73.394 17.3746C73.394 16.4027 73.5638 15.5597 73.9034 14.8454C74.2547 14.1312 74.7406 13.5867 75.3612 13.212C75.9935 12.8256 76.7253 12.6324 77.5567 12.6324C78.8915 12.6324 79.8809 13.1359 80.5249 14.1429V12.8431H82.9312ZM78.2065 20.22C78.991 20.22 79.5941 19.9565 80.0156 19.4296C80.4371 18.9027 80.6479 18.2177 80.6479 17.3746C80.6479 16.5315 80.4371 15.8466 80.0156 15.3196C79.5941 14.7927 78.991 14.5293 78.2065 14.5293C77.4103 14.5293 76.8131 14.7986 76.415 15.3372C76.0286 15.8641 75.8354 16.5433 75.8354 17.3746C75.8354 18.206 76.0286 18.891 76.415 19.4296C76.8131 19.9565 77.4103 20.22 78.2065 20.22Z" fill="#0E0E0E"/>
<path d="M89.498 12.7378C89.6971 12.7378 89.8961 12.7553 90.0952 12.7905V15.1967C89.8844 15.1616 89.6619 15.144 89.4277 15.144C88.6901 15.144 88.1397 15.3196 87.7767 15.6709C87.4138 16.0105 87.1854 16.4145 87.0918 16.8828C86.9981 17.3395 86.9512 17.8723 86.9512 18.4811V22.2925H84.545V12.8431H86.9161V14.459C87.4313 13.3115 88.292 12.7378 89.498 12.7378Z" fill="#0E0E0E"/>
<path d="M95.4799 12.6324C96.4986 12.6324 97.3709 12.8607 98.0969 13.3174C98.8345 13.7623 99.379 14.4005 99.7303 15.2318C100.093 16.0632 100.246 17.0409 100.187 18.165H93.0912C93.1731 18.9612 93.4249 19.5642 93.8464 19.9741C94.268 20.3839 94.8183 20.5888 95.4974 20.5888C96.0946 20.5888 96.5747 20.4424 96.9377 20.1497C97.3123 19.857 97.5641 19.4881 97.6929 19.0432H100.134C99.9235 20.1438 99.4024 20.9986 98.5711 21.6075C97.7514 22.2047 96.7269 22.5033 95.4974 22.5033C94.4904 22.5033 93.6181 22.2983 92.8804 21.8885C92.1427 21.4787 91.5807 20.9049 91.1943 20.1673C90.8079 19.4179 90.6147 18.5514 90.6147 17.5678C90.6147 16.5959 90.8137 15.7353 91.2118 14.9859C91.61 14.2365 92.1779 13.6569 92.9155 13.2471C93.6532 12.8373 94.508 12.6324 95.4799 12.6324ZM97.7456 16.6194C97.6753 15.9871 97.447 15.4777 97.0606 15.0913C96.6859 14.7049 96.1531 14.5117 95.4623 14.5117C94.83 14.5117 94.3148 14.6873 93.9167 15.0386C93.5186 15.3899 93.2551 15.9168 93.1263 16.6194H97.7456Z" fill="#0E0E0E"/>
<path d="M105.78 12.6324C106.799 12.6324 107.671 12.8607 108.397 13.3174C109.135 13.7623 109.679 14.4005 110.031 15.2318C110.394 16.0632 110.546 17.0409 110.487 18.165H103.391C103.473 18.9612 103.725 19.5642 104.147 19.9741C104.568 20.3839 105.119 20.5888 105.798 20.5888C106.395 20.5888 106.875 20.4424 107.238 20.1497C107.613 19.857 107.864 19.4881 107.993 19.0432H110.434C110.224 20.1438 109.703 20.9986 108.871 21.6075C108.052 22.2047 107.027 22.5033 105.798 22.5033C104.791 22.5033 103.918 22.2983 103.181 21.8885C102.443 21.4787 101.881 20.9049 101.495 20.1673C101.108 19.4179 100.915 18.5514 100.915 17.5678C100.915 16.5959 101.114 15.7353 101.512 14.9859C101.91 14.2365 102.478 13.6569 103.216 13.2471C103.953 12.8373 104.808 12.6324 105.78 12.6324ZM108.046 16.6194C107.976 15.9871 107.747 15.4777 107.361 15.0913C106.986 14.7049 106.453 14.5117 105.763 14.5117C105.13 14.5117 104.615 14.6873 104.217 15.0386C103.819 15.3899 103.555 15.9168 103.427 16.6194H108.046Z" fill="#0E0E0E"/>
<path d="M115.743 22.5033C114.314 22.5033 113.208 22.1871 112.423 21.5548C111.639 20.9225 111.194 20.1263 111.088 19.1661H113.495C113.811 20.1731 114.578 20.6766 115.796 20.6766C116.358 20.6766 116.797 20.5771 117.113 20.378C117.429 20.1673 117.587 19.8979 117.587 19.5701C117.587 19.2188 117.411 18.9729 117.06 18.8324C116.721 18.6802 116.135 18.528 115.304 18.3758C114.531 18.2469 113.869 18.0947 113.319 17.9191C112.769 17.7317 112.295 17.439 111.896 17.0409C111.498 16.6428 111.299 16.11 111.299 15.4426C111.299 14.4941 111.697 13.7916 112.494 13.3349C113.29 12.8666 114.262 12.6324 115.409 12.6324C116.674 12.6324 117.681 12.9075 118.43 13.4579C119.191 14.0082 119.642 14.7459 119.783 15.6709H117.376C117.236 15.2845 117.007 14.9859 116.691 14.7752C116.387 14.5644 115.942 14.459 115.356 14.459C114.853 14.459 114.449 14.541 114.145 14.7049C113.852 14.8688 113.705 15.0913 113.705 15.3723C113.705 15.6182 113.823 15.8231 114.057 15.9871C114.303 16.1393 114.572 16.2505 114.865 16.3208C115.157 16.391 115.661 16.4964 116.375 16.6369C117.64 16.8711 118.559 17.1814 119.133 17.5678C119.706 17.9542 119.993 18.5397 119.993 19.3242C119.993 20.2844 119.624 21.0572 118.887 21.6426C118.149 22.2164 117.101 22.5033 115.743 22.5033Z" fill="#0E0E0E"/>
<path d="M124.135 15.2318C123.608 15.2318 123.116 15.1147 122.66 14.8805C122.215 14.6347 121.858 14.2892 121.588 13.8443C121.331 13.3993 121.202 12.8841 121.202 12.2987C121.202 11.7132 121.331 11.198 121.588 10.753C121.858 10.3081 122.215 9.96853 122.66 9.73435C123.116 9.48845 123.608 9.3655 124.135 9.3655C124.662 9.3655 125.148 9.48845 125.593 9.73435C126.049 9.96853 126.412 10.314 126.682 10.7706C126.951 11.2156 127.086 11.7249 127.086 12.2987C127.086 12.8724 126.951 13.3876 126.682 13.8443C126.412 14.2892 126.049 14.6347 125.593 14.8805C125.148 15.1147 124.662 15.2318 124.135 15.2318ZM124.135 13.7565C124.533 13.7565 124.849 13.6277 125.083 13.3701C125.329 13.1007 125.452 12.7436 125.452 12.2987C125.452 11.8537 125.329 11.5024 125.083 11.2448C124.849 10.9872 124.533 10.8584 124.135 10.8584C123.749 10.8584 123.432 10.9872 123.187 11.2448C122.952 11.5024 122.835 11.8537 122.835 12.2987C122.835 12.7436 122.952 13.1007 123.187 13.3701C123.432 13.6277 123.749 13.7565 124.135 13.7565Z" fill="#0E0E0E"/>
<path fill-rule="evenodd" clip-rule="evenodd" d="M124.146 10.9908C123.42 10.9908 122.832 11.5791 122.832 12.3047C122.832 13.0304 123.42 13.6186 124.146 13.6186C124.871 13.6186 125.46 13.0304 125.46 12.3047C125.46 11.5791 124.871 10.9908 124.146 10.9908ZM124.146 15.2467C125.77 15.2467 127.088 13.9295 127.088 12.3047C127.088 10.6799 125.77 9.36279 124.146 9.36279C122.521 9.36279 121.204 10.6799 121.204 12.3047C121.204 13.9295 122.521 15.2467 124.146 15.2467Z" fill="#0E0E0E"/>
</svg>

<svg xmlns="http://www.w3.org/2000/svg" width="128" height="33" fill="none" viewBox="0 0 128 33"><path fill="#0e0e0e" d="M.5 10.74h11.718L.691 22.265l1.862 1.862L14.08 12.602v11.717h.074l2.559-2.559V10.976l-2.87-2.87H3.057L.5 10.664zm31.926 6.53h2.23v2.072h-2.23v2.95h-2.477v-2.95h-6.481v-1.81l6.71-7.956h2.248zm-5.797 0h3.32v-4.058zm14.248-3.619q1.3 0 2.319.51 1.036.509 1.616 1.51.597 1.001.597 2.406 0 2.09-1.318 3.267-1.317 1.16-3.706 1.16-1.65 0-2.775-.545-1.106-.544-1.686-1.44a4.3 4.3 0 0 1-.65-1.968h2.53q.561 2.038 2.564 2.038 1.23 0 1.862-.685.65-.686.65-1.844 0-1.177-.65-1.827-.65-.668-1.845-.668-1.58 0-2.423 1.318l-2.284-.229.86-7.078h8.133v2.073h-6.077l-.386 2.915q.948-.913 2.67-.913m14.279-4.075q2.653 0 4.795 1.265 2.16 1.247 2.16 5.093t-2.16 5.112q-2.142 1.246-4.795 1.247h-4.285V9.576zM55.07 20.08q1.211-.017 2.16-.28.966-.282 1.633-1.195.685-.913.685-2.67 0-1.755-.685-2.67-.667-.912-1.633-1.194-.948-.28-2.16-.28h-1.722v8.29zm12.854-7.448q1.528 0 2.617.685 1.106.667 1.633 1.915.544 1.247.457 2.933h-7.096q.123 1.194.755 1.81.633.614 1.651.614.897 0 1.44-.44.563-.437.756-1.106h2.441q-.316 1.65-1.563 2.565-1.23.895-3.074.895-1.51 0-2.617-.614a4.1 4.1 0 0 1-1.686-1.722q-.58-1.124-.58-2.6 0-1.457.598-2.581a4.2 4.2 0 0 1 1.703-1.739q1.107-.615 2.565-.615m2.266 3.987q-.105-.948-.685-1.528-.562-.58-1.599-.58-.948 0-1.545.528-.597.526-.79 1.58zm12.741-3.776v9.063q0 1.845-1.177 2.968-1.177 1.142-3.442 1.142-1.967 0-3.126-.878-1.16-.861-1.37-2.319h2.406q.421 1.3 2.09 1.3 1.16 0 1.686-.58.527-.561.527-1.668v-1.265q-.984 1.51-2.968 1.51-1.248 0-2.196-.561-.93-.58-1.458-1.651-.51-1.072-.509-2.53 0-1.456.51-2.529.526-1.07 1.457-1.633.948-.58 2.196-.58 2.002 0 2.968 1.51v-1.299zm-4.724 7.377q1.176 0 1.809-.79.632-.79.632-2.055 0-1.264-.632-2.055-.633-.79-1.81-.79-1.194 0-1.791.807-.58.79-.58 2.038 0 1.246.58 2.055.597.79 1.791.79m11.292-7.482q.3 0 .597.053v2.406a4 4 0 0 0-.667-.053q-1.107 0-1.651.527-.545.51-.685 1.212-.14.686-.14 1.598v3.811h-2.407v-9.449h2.371v1.616q.773-1.72 2.582-1.721m5.982-.106q1.528 0 2.617.685 1.107.667 1.633 1.915.545 1.247.457 2.933h-7.096q.123 1.194.755 1.81.633.614 1.651.614.897 0 1.44-.44.563-.437.756-1.106h2.441q-.316 1.65-1.563 2.565-1.23.895-3.074.895-1.51 0-2.617-.614a4.1 4.1 0 0 1-1.686-1.722q-.58-1.124-.58-2.6 0-1.457.598-2.581a4.2 4.2 0 0 1 1.703-1.739q1.107-.615 2.565-.615m2.266 3.987q-.106-.948-.685-1.528-.562-.58-1.599-.58-.948 0-1.545.528-.598.526-.79 1.58zm8.034-3.987q1.528 0 2.617.685 1.107.667 1.634 1.915.544 1.247.456 2.933h-7.096q.123 1.194.756 1.81.632.614 1.651.614.895 0 1.44-.44.562-.437.755-1.106h2.441q-.315 1.65-1.563 2.565-1.229.895-3.073.895-1.511 0-2.617-.614a4.1 4.1 0 0 1-1.686-1.722q-.58-1.124-.58-2.6 0-1.457.597-2.581a4.2 4.2 0 0 1 1.704-1.739q1.106-.615 2.564-.615m2.266 3.987q-.105-.948-.685-1.528-.563-.58-1.598-.58-.95 0-1.546.528-.598.526-.79 1.58zm7.697 5.884q-2.143 0-3.32-.948-1.176-.95-1.335-2.389h2.407q.474 1.51 2.301 1.51.843 0 1.317-.298.474-.316.474-.808 0-.526-.527-.738-.509-.228-1.756-.456a14.4 14.4 0 0 1-1.985-.457 3.65 3.65 0 0 1-1.423-.878q-.597-.597-.597-1.598 0-1.423 1.195-2.108 1.194-.703 2.915-.703 1.898 0 3.021.826a3.23 3.23 0 0 1 1.353 2.213h-2.407a1.77 1.77 0 0 0-.685-.896q-.456-.315-1.335-.316-.755 0-1.211.246-.44.246-.44.667 0 .369.352.615.369.228.808.334.439.105 1.51.316 1.897.351 2.758.93.86.58.86 1.757 0 1.44-1.106 2.319-1.107.86-3.144.86m8.392-7.271a3.2 3.2 0 0 1-1.475-.351 2.85 2.85 0 0 1-1.072-1.037q-.386-.668-.386-1.545 0-.879.386-1.546.405-.667 1.072-1.019a3.06 3.06 0 0 1 1.475-.368q.79 0 1.458.368.684.352 1.089 1.037.404.667.404 1.528 0 .86-.404 1.545-.405.667-1.089 1.037a3.1 3.1 0 0 1-1.458.35m0-1.475q.597 0 .948-.387.369-.404.369-1.071 0-.668-.369-1.054-.351-.387-.948-.387-.58 0-.948.387-.352.386-.352 1.054 0 .667.352 1.071.368.387.948.387"/><path fill="#0e0e0e" fill-rule="evenodd" d="M124.146 10.99a1.314 1.314 0 1 0 0 2.628 1.314 1.314 0 0 0 0-2.627m0 4.257a2.943 2.943 0 1 0-.001-5.885 2.943 2.943 0 0 0 .001 5.885" clip-rule="evenodd"/></svg>
